X: 38503
T: Steeplechase, The
R: reel
M: 4/4
K: Dmajor
|:d2 DE FA3|Beed egfe|d3 A BcdB|A2 FD ED D2|
AD3 FA3|Beed egfe|dcdA B2 dB|1 AFEG FD D2:|2 AFEG FABc||
|:d2 fd Adfd|A3G FDFA|d2 fd Adfd|A3G FD D2|
d2 fd Adfd|A3G FAde|fa3 fedB|1 ABde fd d2:|2 ABde fedc||

